projects/js-packages/social-logos/src/svg/tiktok.svg

<svg fill="none" height="24" viewBox="0 0 24 24" width="24" xmlns="http://www.w3.org/2000/svg"><path d="m12.22 2h3.42s-.1898 4.39351 4.7498 4.70186v3.39624s-2.6361.1655-4.7498-1.44853l.0369 7.01193c0 1.2536-.3717 2.4791-1.0682 3.5214-.6964 1.0424-1.6863 1.8548-2.8445 2.3346-1.1582.4797-2.43258.6053-3.66211.3607-1.22952-.2445-2.35893-.8481-3.2454-1.7345s-1.49019-2.0158-1.73483-3.2453c-.24463-1.2295-.11919-2.5039.36047-3.6621s1.29199-2.1482 2.33427-2.8447c1.04228-.69658 2.2677-1.06842 3.52131-1.06853h.88919v3.40003.0723c-.57953-.1807-1.20132-.1737-1.77667.0198-.57535.1936-1.07487.564-1.42729 1.0582-.35243.4943-.53976 1.0872-.53528 1.6943.00449.607.20056 1.1971.56025 1.6861.3597.489.86463.8519 1.44278 1.037.57814.185 1.19997.1828 1.77671-.0065.5768-.1892 1.0791-.5558 1.4353-1.0474.3561-.4915.5479-1.0831.548-1.6901z" fill="#000"/></svg>

<svg width="24" height="24" viewBox="0 0 24 24" fill="none" xmlns="http://www.w3.org/2000/svg">
	<path d="M12.22 2H15.64C15.64 2 15.4502 6.39351 20.3898 6.70186V10.0981C20.3898 10.0981 17.7537 10.2636 15.64 8.64957L15.6769 15.6615C15.6769 16.9151 15.3052 18.1406 14.6087 19.1829C13.9123 20.2253 12.9224 21.0377 11.7642 21.5175C10.606 21.9972 9.33162 22.1228 8.10209 21.8782C6.87257 21.6337 5.74316 21.0301 4.85669 20.1437C3.97022 19.2573 3.3665 18.1279 3.12186 16.8984C2.87723 15.6689 3.00267 14.3945 3.48233 13.2363C3.96199 12.0781 4.77432 11.0881 5.8166 10.3916C6.85888 9.69502 8.0843 9.32318 9.33791 9.32307H10.2271V12.7231V12.7954C9.64757 12.6147 9.02578 12.6217 8.45043 12.8152C7.87508 13.0088 7.37556 13.3792 7.02314 13.8734C6.67071 14.3677 6.48338 14.9606 6.48786 15.5677C6.49235 16.1747 6.68842 16.7648 7.04811 17.2538C7.40781 17.7428 7.91274 18.1057 8.49089 18.2908C9.06903 18.4758 9.69086 18.4736 10.2676 18.2843C10.8444 18.0951 11.3467 17.7285 11.7029 17.2369C12.059 16.7454 12.2508 16.1538 12.2509 15.5468L12.22 2Z" fill="black"/>
</svg>
